inst/examples/SuperTinyIcons/www/flutter.svg

<svg xmlns="http://www.w3.org/2000/svg"
aria-label="Flutter" role="img"
viewBox="0 0 512 512"><rect
width="512" height="512"
rx="15%"
fill="#e8e9eb"/><defs><linearGradient id="a" x1="37409" y1="-20285" x2="38109" y2="-19585" gradientTransform="matrix(0.06, 0, 0, -0.06, -1982.43, -801.48)" gradientUnits="userSpaceOnUse"><stop offset="0" stop-color="#1a237e" stop-opacity="0.4"/><stop offset="1" stop-color="#1a237e" stop-opacity="0"/></linearGradient></defs><path d="M191.45,342.89,249.11,401,407.75,241.12H292.4Z" fill="#39cefd"/><path d="M292.4,66.69H407.75L162.61,313.82l-57.7-58.13Z" fill="#39cefd"/><path d="M249.11,401l43.29,43.59H407.75L306.8,342.89Z" fill="#03569b"/><path d="M334.67,371.16,306.8,342.89,249.11,401Z" fill="url(#a)"/><path d="M191.45,342.87l57.69-58.18,57.7,58.15L249.14,401Z" fill="#16b9fd"/></svg>

<svg xmlns="http://www.w3.org/2000/svg"
aria-label="Flutter" role="img"
viewBox="0 0 512 512" ><rect
width="512" height="512"
rx="15%" 
fill="#e8e9eb"/><defs><linearGradient id="f" x1="249" x2="321" y1="401" y2="358" gradientUnits="userSpaceOnUse"><stop stop-opacity=".4" offset="0"/><stop stop-color="#124793" stop-opacity="0" offset="1"/></linearGradient></defs><g fill="#5cc8f8"><path d="m191.4 342.9 57.7 58.1 158.7-159.9h-115.4z"/><path d="m292.4 66.7h115.4l-245.2 247.1-57.7-58.1z"/></g><path d="m249.1 401 43.3 43.6h115.4l-101-101.7z" fill="#075b9d"/><path d="m334.7 371.2-27.9-28.3-57.7 58.1z" fill="url(#f)"/><path d="m191.4 342.9 57.7-58.2 57.7 58.1-57.7 58.2z" fill="#16b9fd"/></svg>
